modules/entypo/icons/loop.svg

<svg height="1000" width="900" viewbox="0 0 900 1000" xmlns="http://www.w3.org/2000/svg"><path d="M800 310c28 0 51.667 9.667 71 29s29 43 29 71v290c0 26.667-9.667 50-29 70s-43 30-71 30H100c-26.667 0-50-10-70-30S0 726.667 0 700V410c0-28 10-51.667 30-71s43.333-29 70-29h250V200l200 180-200 180V450H140v210h620V450H610V310h190"/></svg>

<svg height="1000px" width="900px" xmlns="http://www.w3.org/2000/svg">
  <g>
    <path d="M800 310c28 0 51.667 9.667 71 29c19.333 19.333 29 43 29 71c0 0 0 290 0 290c0 26.667 -9.667 50 -29 70c-19.333 20 -43 30 -71 30c0 0 -700 0 -700 0c-26.667 0 -50 -10 -70 -30c-20 -20 -30 -43.333 -30 -70c0 0 0 -290 0 -290c0 -28 10 -51.667 30 -71c20 -19.333 43.333 -29 70 -29c0 0 250 0 250 0c0 0 0 -110 0 -110c0 0 200 180 200 180c0 0 -200 180 -200 180c0 0 0 -110 0 -110c0 0 -210 0 -210 0c0 0 0 210 0 210c0 0 620 0 620 0c0 0 0 -210 0 -210c0 0 -150 0 -150 0c0 0 0 -140 0 -140c0 0 190 0 190 0c0 0 0 0 0 0" />
  </g>
</svg>
